picto/drinking-water.svg

<svg class="color-immutable" width="24" height="24" viewBox="0 0 24 24" fill="none" xmlns="http://www.w3.org/2000/svg"><path d="M0 22.5V1.5C0 0.675 0.675 0 1.5 0H22.5C23.325 0 24 0.675 24 1.5V22.5C24 23.325 23.325 24 22.5 24H1.5C0.675 24 0 23.325 0 22.5Z" fill="#2D327D"/><path d="M9.011 6.46501L10.655 4.82201L8.77301 2.93901C8.70201 2.86901 8.60801 2.82901 8.50901 2.82901C8.40901 2.82901 8.314 2.87001 8.242 2.93901L7.12801 4.05301C7.05901 4.12301 7.01801 4.21901 7.01801 4.31801C7.01801 4.41801 7.05901 4.51301 7.12801 4.58401L9.011 6.46501Z" fill="white"/><path d="M12.751 7.50101L10.895 5.64401L9.83402 6.70501L10.629 7.50101H7.12602C6.09002 7.50101 5.24902 8.34001 5.24902 9.37501V10.5H6.74802V9.37401C6.74902 9.16801 6.91802 9.00001 7.12602 9.00001H16.5V7.50001H12.751V7.50101Z" fill="white"/><path d="M8.738 12H3.263C3.119 12 3 12.117 3 12.264V19.501C3 20.329 3.672 21 4.501 21H7.501C8.329 21 9 20.329 9 19.501V12.264C9 12.117 8.883 12 8.738 12ZM8.326 15.601C7.963 15.774 7.565 15.863 7.164 15.863C6.761 15.863 6.364 15.774 6.001 15.601C5.639 15.428 5.241 15.337 4.838 15.337C4.436 15.337 4.039 15.428 3.677 15.601V14.85C4.039 14.677 4.436 14.588 4.838 14.588C5.241 14.588 5.639 14.677 6.001 14.85C6.364 15.024 6.761 15.113 7.164 15.113C7.565 15.113 7.963 15.024 8.326 14.85V15.601ZM8.326 14.176C7.963 14.349 7.565 14.438 7.164 14.438C6.761 14.438 6.364 14.349 6.001 14.176C5.639 14.003 5.241 13.913 4.838 13.913C4.436 13.913 4.039 14.003 3.677 14.176V13.425C4.039 13.252 4.436 13.163 4.838 13.163C5.241 13.163 5.639 13.252 6.001 13.425C6.364 13.598 6.761 13.689 7.164 13.689C7.565 13.689 7.963 13.598 8.326 13.425V14.176Z" fill="white"/></svg>

<svg class="color-immutable" width="24" height="24" viewBox="0 0 24 24" fill="none" xmlns="http://www.w3.org/2000/svg"><g clip-path="url(#a)"><path d="M0 22.5v-21C0 .675.675 0 1.5 0h21c.825 0 1.5.675 1.5 1.5v21c0 .825-.675 1.5-1.5 1.5h-21C.675 24 0 23.325 0 22.5Z" fill="#2D327D"/><path d="m9.011 6.465 1.644-1.643-1.882-1.883a.376.376 0 0 0-.531 0L7.128 4.053a.38.38 0 0 0-.11.265c0 .1.041.195.11.266l1.883 1.881Z" fill="#fff"/><path d="m12.751 7.501-1.856-1.857-1.061 1.061.795.796H7.126a1.876 1.876 0 0 0-1.877 1.874V10.5h1.499V9.374A.378.378 0 0 1 7.126 9H16.5V7.5h-3.749v.001ZM8.738 12H3.263a.264.264 0 0 0-.263.264v7.237A1.5 1.5 0 0 0 4.501 21h3C8.329 21 9 20.329 9 19.501v-7.237A.262.262 0 0 0 8.738 12Zm-.412 3.601a2.703 2.703 0 0 1-2.325 0 2.7 2.7 0 0 0-2.324 0v-.751a2.698 2.698 0 0 1 2.324 0 2.69 2.69 0 0 0 2.325 0v.751Zm0-1.425a2.703 2.703 0 0 1-2.325 0 2.699 2.699 0 0 0-2.324 0v-.751a2.698 2.698 0 0 1 2.324 0 2.703 2.703 0 0 0 2.325 0v.751Z" fill="#fff"/></g><defs><clipPath id="a"><path fill="#fff" d="M0 0h24v24H0z"/></clipPath></defs></svg>
